src/assets/icons/weeks,fancy,29.svg

<svg width="48" height="48" viewBox="0 0 48 48" fill="none" xmlns="http://www.w3.org/2000/svg">
<rect opacity="0.2" x="4" y="6" width="40" height="40" rx="4" fill="black"/>
<path d="M7.59002 41H22.1071V37.4801H13.5559V37.3409L16.5289 34.4276C20.715 30.6094 21.8386 28.7003 21.8386 26.3835C21.8386 22.8537 18.9551 20.358 14.59 20.358C10.3145 20.358 7.38121 22.9134 7.39116 26.9105H11.4778C11.4679 24.9616 12.7008 23.7685 14.5602 23.7685C16.35 23.7685 17.6824 24.8821 17.6824 26.6719C17.6824 28.2926 16.688 29.4062 14.8386 31.1861L7.59002 37.8977V41ZM32.5946 20.358C28.0407 20.3381 24.9682 23.321 24.9881 27.4176C24.998 31.2159 27.633 33.9702 31.2424 33.9702C33.4796 33.9702 35.4682 32.8864 36.373 31.0966H36.5123C36.5023 35.1335 35.1003 37.5895 32.4455 37.5895C30.8844 37.5895 29.7608 36.7344 29.4327 35.2528H25.187C25.5847 38.6832 28.3688 41.2784 32.4455 41.2784C37.4867 41.2784 40.7381 37.2017 40.7282 30.2912C40.7182 22.9134 36.7807 20.3778 32.5946 20.358ZM32.6245 23.7386C34.6032 23.7386 36.0648 25.3494 36.0847 27.2884C36.0946 29.2372 34.5534 30.848 32.5847 30.848C30.5961 30.848 29.1742 29.2969 29.1642 27.2983C29.1444 25.3097 30.6259 23.7386 32.6245 23.7386Z" fill="black"/>
<g opacity="0.4">
<path d="M10 4C10 2.89543 10.8954 2 12 2C13.1046 2 14 2.89543 14 4V8C14 9.10457 13.1046 10 12 10C10.8954 10 10 9.10457 10 8V4Z" fill="black"/>
<path d="M34 4C34 2.89543 34.8954 2 36 2C37.1046 2 38 2.89543 38 4V8C38 9.10457 37.1046 10 36 10C34.8954 10 34 9.10457 34 8V4Z" fill="black"/>
</g>
<path fill-rule="evenodd" clip-rule="evenodd" d="M10 6.00869C7.52043 6.04456 6.11466 6.22849 5.17157 7.17157C4 8.34315 4 10.2288 4 14V16H44V14C44 10.2288 44 8.34315 42.8284 7.17157C41.8853 6.22849 40.4796 6.04456 38 6.00869V8C38 9.10457 37.1046 10 36 10C34.8954 10 34 9.10457 34 8V6H14V8C14 9.10457 13.1046 10 12 10C10.8954 10 10 9.10457 10 8V6.00869Z" fill="black"/>
</svg>

<svg xmlns="http://www.w3.org/2000/svg" width="48" height="48" fill="none" viewBox="0 0 48 48">
  <rect width="40" height="40" x="4" y="6" fill="#000" opacity=".2" rx="4"/>
  <path fill="#000" d="M7.59 41h14.517v-3.52h-8.551v-.14l2.973-2.912c4.186-3.819 5.31-5.728 5.31-8.044 0-3.53-2.884-6.026-7.249-6.026-4.275 0-7.209 2.555-7.199 6.552h4.087c-.01-1.948 1.223-3.142 3.082-3.142 1.79 0 3.122 1.114 3.122 2.904 0 1.62-.994 2.734-2.843 4.514L7.59 37.898V41zm25.005-20.642c-4.554-.02-7.627 2.963-7.607 7.06.01 3.798 2.645 6.552 6.254 6.552 2.238 0 4.226-1.084 5.131-2.873h.14c-.01 4.036-1.413 6.492-4.067 6.492-1.562 0-2.685-.855-3.013-2.336h-4.246c.398 3.43 3.182 6.025 7.259 6.025 5.04 0 8.292-4.076 8.282-10.987-.01-7.378-3.947-9.913-8.133-9.933zm.03 3.38c1.978 0 3.44 1.611 3.46 3.55.01 1.95-1.532 3.56-3.5 3.56-1.989 0-3.41-1.551-3.42-3.55-.02-1.988 1.46-3.56 3.46-3.56z"/>
  <g opacity=".4">
    <path fill="#000" d="M10 4a2 2 0 114 0v4a2 2 0 11-4 0V4zM34 4a2 2 0 114 0v4a2 2 0 11-4 0V4z"/>
  </g>
  <path fill="#000" fill-rule="evenodd" d="M10 6.009c-2.48.036-3.885.22-4.828 1.163C4 8.343 4 10.229 4 14v2h40v-2c0-3.771 0-5.657-1.172-6.828-.943-.944-2.348-1.127-4.828-1.163V8a2 2 0 11-4 0V6H14v2a2 2 0 11-4 0V6.009z" clip-rule="evenodd"/>
</svg>
